X:11879
T:no name
R:reel
H:See also #610
Z:id:hn-reel-624
M:C|
K:G
dgec dBAB|dBAB GEDB,|G,A,B,D GABd|eaag edBd|
~g3a bgef|gedB AGEG|DEGA Bgfg|ecAF G2Bc:|
|:dggf g3a|bg~g2 edBA|~G3A BABd|eaag edBd|
~g3a bgef|gedB AGEG|DEGA Bgfg|ecAF G2Bc:|
